icons/denojs/denojs-original-wordmark.svg

<svg width="128" height="128" viewBox="0 0 128 128" fill="none" xmlns="http://www.w3.org/2000/svg">
<path d="M35.2727 119.805C42.3636 119.805 46.6591 115.418 46.6591 108.146C46.6591 100.896 42.3636 96.532 35.3409 96.532H27.0227V119.805H35.2727ZM31.9432 115.589V100.748H35.0795C39.4432 100.748 41.75 102.975 41.75 108.146C41.75 113.339 39.4432 115.589 35.0682 115.589H31.9432ZM58.1676 120.146C62.4858 120.146 65.3949 118.043 66.0767 114.805L61.5994 114.509C61.1108 115.839 59.8608 116.532 58.2472 116.532C55.8267 116.532 54.2926 114.93 54.2926 112.327V112.316H66.179V110.987C66.179 105.055 62.5881 102.123 57.9744 102.123C52.8381 102.123 49.5085 105.771 49.5085 111.157C49.5085 116.691 52.7926 120.146 58.1676 120.146ZM54.2926 109.316C54.3949 107.327 55.9062 105.737 58.054 105.737C60.1562 105.737 61.6108 107.237 61.6222 109.316H54.2926ZM74.179 109.714C74.1903 107.464 75.5312 106.146 77.4858 106.146C79.429 106.146 80.5994 107.418 80.5881 109.555V119.805H85.429V108.691C85.429 104.623 83.0426 102.123 79.4062 102.123C76.8153 102.123 74.9403 103.396 74.1562 105.43H73.9517V102.35H69.3381V119.805H74.179V109.714ZM97.1307 120.146C102.426 120.146 105.722 116.521 105.722 111.146C105.722 105.737 102.426 102.123 97.1307 102.123C91.8352 102.123 88.5398 105.737 88.5398 111.146C88.5398 116.521 91.8352 120.146 97.1307 120.146ZM97.1534 116.396C94.7102 116.396 93.4602 114.157 93.4602 111.112C93.4602 108.066 94.7102 105.816 97.1534 105.816C99.5511 105.816 100.801 108.066 100.801 111.112C100.801 114.157 99.5511 116.396 97.1534 116.396Z" fill="black"/>
<circle cx="66" cy="51" r="45" fill="black"/>
<path d="M43.8516 46.0781L42.4453 47.4844L41.3906 48.8906L40.3359 50.6484L39.9844 51.7031V52.7578V53.4609V54.1641L40.3359 54.8672L40.6875 55.5703L41.0391 56.2734L41.7422 57.3281L42.7969 58.3828L44.5547 59.4375L46.6641 60.4922L49.4766 61.1953L52.2891 61.5469H56.8594L58.2656 61.1953L61.4297 60.4922L64.2422 59.4375L65.6484 59.0859L66.7031 58.7344L67.7578 58.3828H68.1094H68.4609L69.1641 58.7344L69.5156 59.4375V59.7891V60.1406V60.4922L69.1641 60.8438L64.2422 62.9531L64.9453 68.9297L65.1211 70.5117L65.2969 72.7969V73.8516V75.9609V89.3203V92.1328H72.3281L75.1406 91.7812L78.3047 91.0781L81.4688 90.0234L84.2812 88.9688L87.0938 87.5625V87.2109L86.3906 72.4453L86.0391 69.2812L85.6875 66.4688L85.3359 62.9531L84.9844 59.7891L84.2812 56.9766L83.5781 54.5156L82.5234 51L81.1172 48.5391L79.7109 46.4297L77.9531 44.6719L76.5469 43.2656L74.4375 41.5078L72.6797 40.4531L69.8672 39.3984L67.7578 38.6953L65.6484 38.3438H62.8359H60.375L57.2109 39.0469L53.6953 40.1016L50.1797 41.5078L46.6641 43.6172L45.2578 44.6719L43.8516 46.0781Z" fill="white" stroke="black"/>
<circle cx="47.7188" cy="45.375" r="1.40625" fill="black"/>
<circle cx="54.9258" cy="46.2539" r="1.58203" fill="black"/>
<path d="M62.5723 10.5689C62.5637 10.4034 62.6908 10.2623 62.8562 10.2536L63.3103 10.2298C63.4758 10.2211 63.6169 10.3482 63.6256 10.5137L64.9557 35.8945C64.9644 36.0599 64.8373 36.2011 64.6718 36.2098L64.4175 36.2231C64.1417 36.2375 63.9065 36.0257 63.892 35.7499L62.5723 10.5689Z" fill="white"/>
<path d="M96.2113 22.3926C96.2113 22.2761 96.3057 22.1816 96.4222 22.1816V22.1816C96.8106 22.1816 97.1254 22.4964 97.1254 22.8848V53.5223C97.1254 53.688 96.9911 53.8223 96.8254 53.8223H96.7113C96.4352 53.8223 96.2113 53.5984 96.2113 53.3223V22.3926Z" fill="white"/>
<path d="M46.5521 15.3703C46.5053 14.9247 46.8286 14.5255 47.2742 14.4787V14.4787C47.4079 14.4646 47.5276 14.5616 47.5417 14.6953L49.5428 33.7345C49.5601 33.8993 49.4406 34.0469 49.2758 34.0642L49.0225 34.0909C48.7479 34.1197 48.5019 33.9205 48.473 33.6459L46.5521 15.3703Z" fill="white"/>
<path d="M39.3006 30.0723C39.2886 29.969 39.331 29.8668 39.4126 29.8023L39.7438 29.5408C39.9265 29.3964 40.1969 29.5063 40.2272 29.7372L42.0694 43.7829C42.0843 43.8965 42.0332 44.0087 41.9376 44.072L41.6758 44.2455C41.3648 44.4515 40.9459 44.2568 40.903 43.8862L39.3006 30.0723Z" fill="white"/>
<path d="M26.6552 34.3625C26.6361 34.2123 26.6861 34.0616 26.7911 33.9526L26.816 33.9267C26.9913 33.7449 27.299 33.8477 27.3298 34.0983L29.3663 50.6841C29.3823 50.8146 29.2896 50.9333 29.1592 50.9493V50.9493C28.9424 50.9759 28.745 50.8223 28.7175 50.6057L26.6552 34.3625Z" fill="white"/>
<path d="M29.4773 54.222C29.4554 54.0676 29.5645 53.9253 29.7192 53.9063V53.9063C29.872 53.8876 30.011 53.9962 30.0298 54.1489L32.1252 71.2152C32.132 71.2706 32.0888 71.3195 32.033 71.3195V71.3195C31.9558 71.3195 31.8904 71.2627 31.8796 71.1863L29.4773 54.222Z" fill="white"/>
<path d="M35.0968 65.4701C35.0778 65.3159 35.1875 65.1756 35.3417 65.1566V65.1566C35.4958 65.1377 35.6362 65.2473 35.6551 65.4015L37.4803 80.2665C37.4945 80.3821 37.4122 80.4873 37.2966 80.5015V80.5015C37.1039 80.5252 36.9285 80.3881 36.9048 80.1954L35.0968 65.4701Z" fill="white"/>
<path d="M43.6218 75.3135C43.6045 75.1487 43.724 75.0011 43.8888 74.9838L43.9914 74.973C44.1561 74.9557 44.3038 75.0752 44.3211 75.24L45.3646 85.1685C45.3798 85.3133 45.2748 85.4431 45.1299 85.4583V85.4583C44.8886 85.4837 44.6723 85.3086 44.647 85.0672L43.6218 75.3135Z" fill="white"/>
<path d="M56.2653 65.3647C56.2552 65.2486 56.341 65.1463 56.4571 65.1362V65.1362C56.6505 65.1192 56.821 65.2623 56.8379 65.4557L57.702 75.3321C57.7156 75.4868 57.6011 75.6232 57.4463 75.6368V75.6368C57.2916 75.6503 57.1552 75.5358 57.1417 75.3811L56.2653 65.3647Z" fill="white"/>
<path d="M52.6668 74.5938C52.6523 74.4287 52.7744 74.2832 52.9395 74.2688L53.0422 74.2598C53.2073 74.2453 53.3528 74.3674 53.3672 74.5325L53.9309 80.9755C53.9436 81.1205 53.8363 81.2484 53.6912 81.2611V81.2611C53.4494 81.2823 53.2363 81.1034 53.2151 80.8616L52.6668 74.5938Z" fill="white"/>
<path d="M48.4838 83.74C48.4693 83.575 48.5914 83.4295 48.7565 83.415L48.8592 83.406C49.0243 83.3916 49.1698 83.5137 49.1842 83.6787L49.5028 87.3199C49.5155 87.465 49.4082 87.5929 49.2631 87.6056V87.6056C49.0213 87.6267 48.8082 87.4479 48.787 87.2061L48.4838 83.74Z" fill="white"/>
<path d="M46.3386 63.3438C46.3242 63.1787 46.4463 63.0332 46.6114 63.0188L46.8542 62.9975C47.0192 62.9831 47.1647 63.1052 47.1792 63.2702L47.4946 66.8752C47.509 67.0403 47.3869 67.1858 47.2219 67.2002L47.1783 67.204C46.9032 67.2281 46.6607 67.0246 46.6366 66.7495L46.3386 63.3438Z" fill="white"/>
<path d="M38.5904 58.9663C38.5836 58.8889 38.6408 58.8207 38.7182 58.8139V58.8139C39.1051 58.7801 39.4461 59.0662 39.4799 59.4531L39.8215 63.3569C39.8359 63.522 39.7138 63.6675 39.5488 63.6819L39.5052 63.6857C39.2301 63.7098 38.9876 63.5063 38.9635 63.2312L38.5904 58.9663Z" fill="white"/>
<path d="M37.198 45.7657C37.1836 45.6006 37.3057 45.4551 37.4707 45.4407L37.7136 45.4194C37.8786 45.405 38.0241 45.5271 38.0386 45.6921L38.2044 47.588C38.2338 47.9233 37.9858 48.2188 37.6505 48.2482V48.2482C37.5215 48.2595 37.4079 48.1641 37.3966 48.0351L37.198 45.7657Z" fill="white"/>
<path d="M30.1598 29.6957C30.1477 29.6064 30.1763 29.5164 30.2378 29.4506L30.6789 28.9782C30.8528 28.792 31.1649 28.8935 31.1959 29.1464L35.022 60.3074C35.0418 60.4687 34.9159 60.611 34.7534 60.611V60.611C34.5277 60.611 34.3367 60.4443 34.3063 60.2206L30.1598 29.6957Z" fill="white"/>
<path d="M73.8917 11.1887C73.8894 11.0543 73.9964 10.9434 74.1308 10.9411V10.9411C74.5788 10.9332 74.9483 11.2901 74.9561 11.7381L75.2435 28.2024C75.2464 28.3681 75.1145 28.5047 74.9488 28.5076L74.6942 28.512C74.4181 28.5169 74.1903 28.2969 74.1855 28.0208L73.8917 11.1887Z" fill="white"/>
<path d="M85.8458 26.0109C85.8429 25.8452 85.9749 25.7086 86.1405 25.7057L86.4546 25.7002C86.6202 25.6973 86.7568 25.8293 86.7597 25.9949L87.0561 42.9705C87.0589 43.1361 86.927 43.2728 86.7613 43.2757L86.6473 43.2777C86.3712 43.2825 86.1435 43.0626 86.1386 42.7865L85.8458 26.0109Z" fill="white"/>
<path d="M105.375 46.2891C105.375 46.1726 105.469 46.0781 105.586 46.0781V46.0781C105.974 46.0781 106.289 46.3929 106.289 46.7813V62.8067C106.289 62.899 106.246 62.9861 106.173 63.0424V63.0424C105.847 63.2932 105.375 63.0608 105.375 62.6495V46.2891Z" fill="white"/>
<path d="M91.3125 67.4719C91.3125 67.3062 91.4468 67.1719 91.6125 67.1719H91.7156C91.8813 67.1719 92.0156 67.3062 92.0156 67.4719V81.9196C92.0156 81.9846 91.9876 82.0465 91.9388 82.0895V82.0895C91.6952 82.3039 91.3125 82.1309 91.3125 81.8063V67.4719Z" fill="white"/>
<path d="M68.823 21.1021C68.8172 20.9365 68.9467 20.7976 69.1123 20.7918L69.5667 20.7759C69.7323 20.7701 69.8712 20.8997 69.877 21.0653L70.1996 30.3034C70.2054 30.469 70.0759 30.6079 69.9103 30.6137L69.6557 30.6226C69.3798 30.6322 69.1482 30.4163 69.1386 30.1403L68.823 21.1021Z" fill="white"/>
<path d="M91.4839 39.362C91.4839 39.1963 91.6182 39.062 91.7839 39.062H92.0979C92.2636 39.062 92.3979 39.1963 92.3979 39.362V49.3089C92.3979 49.4746 92.2636 49.6089 92.0979 49.6089H91.9839C91.7077 49.6089 91.4839 49.385 91.4839 49.1089V39.362Z" fill="white"/>
<path d="M101.156 61.8469C101.156 61.6812 101.291 61.5469 101.456 61.5469H101.911C102.077 61.5469 102.211 61.6812 102.211 61.8469V71.2301C102.211 71.3304 102.161 71.424 102.077 71.4797L101.934 71.5755C101.601 71.797 101.156 71.5588 101.156 71.1595V61.8469Z" fill="white"/>
<path d="M101.156 41.3996C101.156 41.2652 101.265 41.1562 101.4 41.1562V41.1562C101.848 41.1562 102.211 41.5195 102.211 41.9675V51.4031C102.211 51.5688 102.077 51.7031 101.911 51.7031H101.656C101.38 51.7031 101.156 51.4793 101.156 51.2031V41.3996Z" fill="white"/>
<path d="M80.1848 16.863C80.1848 16.6973 80.3191 16.563 80.4848 16.563H80.9395C81.1052 16.563 81.2395 16.6973 81.2395 16.863V23.2942C81.2395 23.4599 81.1052 23.5942 80.9395 23.5942H80.6848C80.4087 23.5942 80.1848 23.3704 80.1848 23.0942V16.863Z" fill="white"/>
<path d="M91.3125 20.2734C91.3125 20.1569 91.4069 20.0625 91.5234 20.0625V20.0625C91.9118 20.0625 92.2266 20.3773 92.2266 20.7656V26.7937C92.2266 26.9594 92.0922 27.0937 91.9266 27.0937H91.8125C91.5364 27.0937 91.3125 26.8699 91.3125 26.5937V20.2734Z" fill="white"/>
<path d="M80.1848 28.113C80.1848 27.9473 80.3191 27.813 80.4848 27.813H80.9395C81.1052 27.813 81.2395 27.9473 81.2395 28.113V34.5442C81.2395 34.7099 81.1052 34.8442 80.9395 34.8442H80.6848C80.4087 34.8442 80.1848 34.6204 80.1848 34.3442V28.113Z" fill="white"/>
<path d="M56.7036 16.2072C56.692 16.0419 56.8167 15.8986 56.9819 15.887L57.4355 15.8553C57.6008 15.8438 57.7442 15.9684 57.7557 16.1337L58.4496 26.0563C58.4611 26.2216 58.3365 26.3649 58.1712 26.3765L57.9172 26.3943C57.6417 26.4135 57.4028 26.2058 57.3835 25.9304L56.7036 16.2072Z" fill="white"/>
<path d="M52.5456 21.8496C52.5312 21.6846 52.6533 21.5391 52.8183 21.5246L53.2713 21.485C53.4363 21.4706 53.5818 21.5927 53.5963 21.7577L54.1568 28.1645C54.1713 28.3295 54.0492 28.4751 53.8841 28.4895L53.6304 28.5117C53.3553 28.5358 53.1128 28.3323 53.0887 28.0572L52.5456 21.8496Z" fill="white"/>
<path d="M33.6718 25.4663C33.6619 25.3832 33.6871 25.2997 33.7415 25.2361L34.1157 24.7973C34.2851 24.5987 34.6099 24.6963 34.6417 24.9555L35.7216 33.7508C35.7418 33.9153 35.6249 34.0649 35.4604 34.0851L35.2093 34.116C34.9346 34.1497 34.6847 33.9538 34.6519 33.6789L33.6718 25.4663Z" fill="white"/>
</svg>

<svg width="128" height="128" viewBox="0 0 128 128" fill="none" xmlns="http://www.w3.org/2000/svg"><path d="M35.273 119.805c7.09 0 11.386-4.387 11.386-11.659 0-7.25-4.295-11.614-11.318-11.614h-8.318v23.273h8.25zm-3.33-4.216v-14.841h3.137c4.363 0 6.67 2.227 6.67 7.398 0 5.193-2.307 7.443-6.682 7.443h-3.125zm26.225 4.557c4.318 0 7.227-2.103 7.909-5.341l-4.478-.296c-.488 1.33-1.738 2.023-3.352 2.023-2.42 0-3.954-1.602-3.954-4.205v-.011h11.886v-1.329c0-5.932-3.59-8.864-8.205-8.864-5.136 0-8.465 3.648-8.465 9.034 0 5.534 3.284 8.989 8.659 8.989zm-3.875-10.83c.102-1.989 1.613-3.579 3.761-3.579 2.102 0 3.557 1.5 3.568 3.579h-7.33zm19.886.398c.011-2.25 1.352-3.568 3.307-3.568 1.943 0 3.113 1.272 3.102 3.409v10.25h4.841v-11.114c0-4.068-2.386-6.568-6.023-6.568-2.59 0-4.466 1.273-5.25 3.307h-.204v-3.08h-4.614v17.455h4.841v-10.091zm22.952 10.432c5.295 0 8.591-3.625 8.591-9 0-5.409-3.296-9.023-8.591-9.023-5.296 0-8.591 3.614-8.591 9.023 0 5.375 3.295 9 8.59 9zm.022-3.75c-2.443 0-3.693-2.239-3.693-5.284 0-3.046 1.25-5.296 3.693-5.296 2.398 0 3.648 2.25 3.648 5.296 0 3.045-1.25 5.284-3.648 5.284z" fill="#000"/><circle cx="66" cy="51" r="45" fill="#000"/><path d="m43.852 46.078-1.407 1.406-1.054 1.407-1.055 1.757-.352 1.055v2.461l.352.703.352.703.351.703.703 1.055 1.055 1.055 1.758 1.054 2.11 1.055 2.812.703 2.812.352h4.57l1.407-.352 3.164-.703 2.812-1.054 1.406-.352 1.055-.352 1.055-.351h.703l.703.351.352.703v1.055l-.352.352-4.922 2.11.703 5.976.176 1.582.176 2.285v19.336h7.031l2.813-.352 3.164-.703 3.164-1.055 2.812-1.054 2.813-1.406v-.352l-.703-14.766-.352-3.164-.352-2.812-.351-3.516-.352-3.164-.703-2.812-.703-2.461L82.523 51l-1.406-2.46-1.406-2.11-1.758-1.758-1.406-1.406-2.11-1.758-1.757-1.055-2.813-1.055-2.11-.703-2.109-.351h-5.273l-3.164.703-3.516 1.055-3.515 1.406-3.516 2.11-1.406 1.054-1.406 1.406z" fill="#fff" stroke="#000"/><circle cx="47.719" cy="45.375" r="1.406" fill="#000"/><circle cx="54.926" cy="46.254" r="1.582" fill="#000"/><path d="M62.572 10.569a.3.3 0 0 1 .284-.315l.454-.024a.3.3 0 0 1 .316.284l1.33 25.38a.3.3 0 0 1-.284.316l-.254.013a.5.5 0 0 1-.526-.473l-1.32-25.181zm33.639 11.824c0-.117.095-.211.211-.211.389 0 .703.314.703.703v30.637a.3.3 0 0 1-.3.3h-.114a.5.5 0 0 1-.5-.5v-30.93zM46.552 15.37a.811.811 0 0 1 .722-.891.243.243 0 0 1 .268.216l2 19.04a.3.3 0 0 1-.266.33l-.254.026a.5.5 0 0 1-.549-.445l-1.92-18.276zM39.3 30.072a.3.3 0 0 1 .113-.27l.33-.261a.3.3 0 0 1 .484.196l1.842 14.046a.3.3 0 0 1-.131.289l-.262.173a.5.5 0 0 1-.773-.359l-1.602-13.814zm-12.645 4.29a.5.5 0 0 1 .136-.41l.025-.025a.3.3 0 0 1 .514.171l2.036 16.586a.238.238 0 0 1-.207.265.396.396 0 0 1-.441-.343l-2.063-16.244zm2.822 19.86a.279.279 0 1 1 .553-.073l2.095 17.066a.093.093 0 0 1-.092.105.155.155 0 0 1-.153-.134l-2.403-16.964zm5.62 11.248a.281.281 0 1 1 .558-.069l1.825 14.865a.21.21 0 0 1-.183.235.352.352 0 0 1-.392-.306L35.097 65.47zm8.525 9.844a.3.3 0 0 1 .267-.33l.102-.011a.3.3 0 0 1 .33.267l1.044 9.928a.264.264 0 0 1-.235.29.44.44 0 0 1-.483-.39l-1.025-9.754zm12.643-9.949a.21.21 0 0 1 .192-.229.351.351 0 0 1 .38.32l.865 9.876a.281.281 0 1 1-.56.049l-.877-10.016zm-3.598 9.229a.3.3 0 0 1 .273-.325l.102-.01a.3.3 0 0 1 .325.273l.564 6.444a.264.264 0 0 1-.24.285.44.44 0 0 1-.476-.4l-.548-6.267zm-4.183 9.146a.3.3 0 0 1 .273-.325l.102-.009a.3.3 0 0 1 .325.273l.319 3.64a.264.264 0 0 1-.24.287.44.44 0 0 1-.476-.4l-.303-3.466zm-2.145-20.396a.3.3 0 0 1 .272-.325l.243-.021a.3.3 0 0 1 .325.272l.316 3.605a.3.3 0 0 1-.273.325l-.044.004a.5.5 0 0 1-.541-.454l-.298-3.406zm-7.749-4.378a.14.14 0 0 1 .128-.152.703.703 0 0 1 .762.64l.342 3.903a.3.3 0 0 1-.273.325l-.044.004a.5.5 0 0 1-.541-.455l-.374-4.265zm-1.392-13.2a.3.3 0 0 1 .273-.325l.243-.022a.3.3 0 0 1 .325.273l.165 1.896a.61.61 0 0 1-.553.66.234.234 0 0 1-.254-.213l-.199-2.27zm-7.038-16.07a.3.3 0 0 1 .078-.245l.44-.473a.3.3 0 0 1 .518.168l3.826 31.161a.27.27 0 0 1-.269.304.451.451 0 0 1-.447-.39L30.16 29.696zm43.732-18.507a.243.243 0 0 1 .239-.248.811.811 0 0 1 .825.797l.287 16.464a.3.3 0 0 1-.294.306l-.255.004a.5.5 0 0 1-.508-.491l-.294-16.832zM85.846 26.01a.3.3 0 0 1 .294-.304l.315-.006a.3.3 0 0 1 .305.295l.296 16.976a.3.3 0 0 1-.295.305l-.114.002a.5.5 0 0 1-.508-.492l-.293-16.775zm19.529 20.28a.21.21 0 0 1 .211-.212c.388 0 .703.315.703.703v16.026c0 .092-.043.18-.116.235a.496.496 0 0 1-.798-.392V46.29zM91.313 67.472a.3.3 0 0 1 .3-.3h.103a.3.3 0 0 1 .3.3V81.92a.227.227 0 0 1-.077.17.377.377 0 0 1-.626-.284V67.472zm-22.49-46.37a.3.3 0 0 1 .29-.31l.454-.016a.3.3 0 0 1 .31.29l.323 9.237a.3.3 0 0 1-.29.31l-.254.01a.5.5 0 0 1-.517-.483l-.316-9.038zm22.661 18.26a.3.3 0 0 1 .3-.3h.314a.3.3 0 0 1 .3.3v9.947a.3.3 0 0 1-.3.3h-.114a.5.5 0 0 1-.5-.5v-9.747zm9.672 22.485a.3.3 0 0 1 .3-.3h.455a.3.3 0 0 1 .3.3v9.383a.3.3 0 0 1-.134.25l-.143.096a.5.5 0 0 1-.778-.416v-9.313zm0-20.447c0-.135.109-.244.244-.244.448 0 .811.364.811.812v9.435a.3.3 0 0 1-.3.3h-.255a.5.5 0 0 1-.5-.5V41.4zM80.185 16.863a.3.3 0 0 1 .3-.3h.454a.3.3 0 0 1 .3.3v6.431a.3.3 0 0 1-.3.3h-.254a.5.5 0 0 1-.5-.5v-6.231zm11.128 3.41a.21.21 0 0 1 .21-.21c.389 0 .704.314.704.703v6.028a.3.3 0 0 1-.3.3h-.115a.5.5 0 0 1-.5-.5v-6.32zm-11.128 7.84a.3.3 0 0 1 .3-.3h.454a.3.3 0 0 1 .3.3v6.431a.3.3 0 0 1-.3.3h-.254a.5.5 0 0 1-.5-.5v-6.231zM56.704 16.207a.3.3 0 0 1 .278-.32l.453-.032a.3.3 0 0 1 .32.279l.695 9.922a.3.3 0 0 1-.279.32l-.254.018a.5.5 0 0 1-.534-.464l-.68-9.723zm-4.158 5.643a.3.3 0 0 1 .272-.325l.453-.04a.3.3 0 0 1 .325.273l.56 6.407a.3.3 0 0 1-.272.325l-.254.022a.5.5 0 0 1-.541-.455l-.543-6.207zm-18.874 3.616a.3.3 0 0 1 .07-.23l.374-.439a.3.3 0 0 1 .526.159l1.08 8.795a.3.3 0 0 1-.262.334l-.25.031a.5.5 0 0 1-.558-.437l-.98-8.213z"/></svg>
